X:1
T:Canon in D
T:Canon in D
%%score { ( 1 4 ) | ( 2 3 ) }
L:1/8
Q:1/4=80
M:4/4
K:D
V:1 treble nm="Piano" snm="Pno"
V:4 treble 
V:2 bass 
V:3 bass 
V:1
 z"^(Strings)" A,DF z A,CE | z B,DF z F,A,C | z G,B,D z D,F,A, | z G,B,D z A,CE || %4
"_Legato expressivo"!mp!"^A""^(Piano)" (f4 e4 | d4 c4) | (B4 A4 | B4 c4) | ([df]4 [ce]4 | %9
 [Bd]4 [Ac]4) | ([GB]4 [FA]4 | [GB]4 [Ec]4) ||"^B" (d2 F2 A2 G2) | (F2 D2 F2 E2) | (D2 B,2 D2 A2) | %15
 (G2 d2{/de} d3 c) ||"^C"!mf!"_legato" (dcdD CAEF | D"_cresc."dcB cfab) |!f! (gfeg fedc | %19
"_dim." BAGF EGFE) ||"^D"!mf! (DEFG AEAG | FBAG AGFE) | (DB,Bc dcBA | GFEB!<(! ABAG)!<)! || %24
"^E"!mf! (af/g/) (af/g/) .a/(A/B/c/ d/e/f/g/) |!mp! (fd/e/) .f(F/G/ A/B/A/G/ A/F/G/A/) | %26
 (GB/A/ GF/E/) (F/E/D/E/ F/G/A/B/) | (GB/A/!<(! Bc/d/) (A/B/c/d/ e/f/g/a/)!<)! || %28
"^F"!mf! (fd/e/ fe/d/) .e/!>(!(c/d/e/ f/e/d/c/)!>)! |!mp! (dB/c/) .d(D/E/ F/G/F/E/ F/d/c/d/) | %30
 (Bd/c/ BA/G/) (A/G/F/G/ A/B/c/d/) | (Bd/c/!<(! dc/B/) (c/d/e/d/ c/d/B/c/)!<)! || %32
"^G"!f! (d3 f fgfe) | (d3 d dedc) | (B4 d4) | (d=cBc A3 A) ||"^H" (d3 a abag) | (f3 f fgfe) | %38
 (d=cBc d3 d) | (B2 d2 c3 c) ||"^I\n" [FAdf]4 [EAce]4 | [DFBd]4 [CFAc]4 | [B,DGB]4 [A,DFA]4 | %43
 [DGB]2 [Bd]2 [EA]2 [ce]2 | [DFAd]8 |] %45
V:2
 D,4 A,,4 | B,,4 F,,4 | G,,4 D,,4 | G,,4 A,,4 || (D,F,A,F,) (A,,C,E,C,) | %5
 (B,,D,F,D,) (F,,A,,C,A,,) | (G,,B,,D,B,,) (D,,A,,D,A,,) | (G,,B,,D,B,,) (A,,C,E,C,) | %8
 (D,F,A,F,) (A,,C,E,A,) | (B,,D,F,D,) (F,,A,,C,F,) | (G,,B,,D,B,,) (D,,A,,D,A,,) | %11
 (G,,B,,D,B,,) (A,,C,E,A,) || (D,F,DF,) (A,,C,E,A,) | (B,,D,F,B,) (F,,A,,C,F,) | %14
 (G,,B,,D,G,) (D,,F,,A,,D,) | (G,,D,G,D,) (A,,E,A,E,) || ((D,A,DA,)) ((A,,E,A,E,)) | %17
 ((B,,F,B,F,)) ((F,,C,F,C,)) | G,,4 [D,,D,]4 | ((G,,D,G,D,)) ((A,,E,A,E,)) || %20
 ((D,A,DA,)) ((A,,E,A,E,)) | ((B,,F,B,F,)) ((F,,C,F,C,)) | ((G,,D,G,D,)) ((D,,A,,D,A,,)) | %23
 ((G,,D,G,D,)) ((A,,E,A,E,)) || (D,A,DA,) (A,,E,A,E,) | (B,,F,B,F,) (F,,C,F,C,) | %26
 (G,,D,G,D,) (D,,A,,D,A,,) | (G,,D,G,D,) (A,,E,A,E,) || ((D,A,DA,)) ((A,,E,A,E,)) | %29
 ((B,,F,B,F,)) ((F,,C,F,C,)) | ((G,,D,G,D,)) ((D,,A,,D,A,,)) | ((G,,D,G,D,)) ((A,,E,A,E,)) || %32
 (D,F,A,F,) (A,,C,E,A,) | (B,,D,F,D,) (F,,A,,C,F,) | (G,,B,,D,B,,) (D,,F,,A,,D,) | %35
 (G,,B,,D,G,) (A,,C,E,A,) || (D,F,A,F,) (A,,C,E,A,) | (B,,D,F,D,) (F,,A,,C,F,) | %38
 (G,,B,,D,B,,) (D,,F,,A,,D,) | (G,,B,,D,G,) (A,,C,E,A,) || (D,F,A,D) (A,,C,E,A,) | %41
 (B,,D,F,B,) (F,,A,,C,F,) | (G,,B,,D,G,) (D,,F,,A,,D,) | (G,,B,,D,G,) (A,,C,E,A,) | [D,,D,]8 |] %45
V:3
 x8 | x8 | x8 | x8 || D,4 A,,4 | B,,4 F,,4 | G,,4 D,,4 | G,,4 A,,4 | D,4 A,,4 | B,,4 F,,4 | %10
 G,,4 D,,4 | G,,4 A,,4 || D,4 A,,4 | B,,4 F,,4 | G,,4 D,,4 | G,,4 A,,4 || D,4 A,,4 | B,,4 F,,4 | %18
 x8 | G,,4 A,,4 || D,4 A,,4 | B,,4 F,,4 | G,,4 D,,4 | G,,4 A,,4 || D,4 A,,4 | B,,4 F,,4 | %26
 G,,4 D,,4 | G,,4 A,,4 || D,4 A,,4 | B,,4 F,,4 | G,,4 D,,4 | G,,4 A,,4 || D,4 A,,4 | B,,4 F,,4 | %34
 G,,4 D,,4 | G,,4 A,,4 || D,4 A,,4 | B,,4 F,,4 | G,,4 D,,4 | G,,4 A,,4 || D,4 A,,4 | B,,4 F,,4 | %42
 G,,4 D,,4 | G,,4 A,,4 | x8 |] %45
V:4
 x8 | x8 | x8 | x8 || x8 | x8 | x8 | x8 | x8 | x8 | x8 | x8 || F4 C4 | D4 A,4 | B,4 A,4 | B,4 z4 || %16
 F4 C4 | x8 | B4 A4 | G4 C4 || x4 C4 | D4 C4 | B,4 F4 | D4 C4 || x8 | x8 | x8 | x8 || x8 | x8 | %30
 x8 | x8 || x8 | x8 | x8 | x8 || x8 | x8 | x8 | x8 || x8 | x8 | x8 | x8 | x8 |] %45

